!!!OTL: ZU MANTUA IN BANDEN DER TREUE HOFER WAR
!!!ARE: Europa, Mitteleuropa, Deutschland
!!!SCT: B0093
!!!YEM: Copyright 1995, estate of Helmut Schaffrath.
**kern
*ICvox
*Ivox
*M4/4
*k[f#]
*G:
{4B
=1
4.e
8e
4e
4f#
=2
8g
8f#
4e
4r}
{4b
=3
4b
4a
4g
4f#
=4
2e
4r}
{4d
=5
4.a
8g#
4a
4b
=6
2g
4d}
{8g
8g#
=7
4.a
8g#
4a
4b
=8
2g
4r}
{4e
=9
4.e
8e
4e
4f#
=10
8.g
16f#
4e
4r}
{4b
=11
4.b
8b
4b
4a
=12
8.g
16f#
4e
4r}
{4d
=13
4.a
8g#
8a
4ee
8dd
=14
2.b}
{4dd
=15
4.dd
8cc
4e
4f#
=16
2g
4r}
==
!!!AGN: Helden -, Ehren -, Gedaechtnis -, Kriegs - Lied
!!!ONB: ESAC (Essen Associative Code) Database: BOEHME
!!!AMT: simple quadruple
!!!AIN: vox
!!!EED: Helmut Schaffrath
!!!EEV: 1.0
*-
